X:1
T:Pentecostal Battle Song
T:Pentecostal Battle Song
T:Seeley Daniel Kinne
T:John T. Boddy, 1910
T:Public Domain Courtesy of the Cyber Hymnal™
T:Public Domain Courtesy of the Cyber Hymnal™
C:Seeley Daniel Kinne
Z:Public Domain
Z:Courtesy of the Cyber Hymnal™
%%score ( 1 2 ) ( 3 4 )
L:1/8
Q:1/4=85
M:3/4
K:E
V:1 treble 
V:2 treble 
V:3 bass 
V:4 bass 
V:1
 [GB]/ | [GB]>[GB] [GB]>[GB] (3(Bc)[Ad] | [Ge]2 [GB]7/2 [GB]/ | [GB]>[GB] [GB]>[GB] [FA]>[GB] | %4
w: 1.~Through-|out the world to- day * is|sound- ing, God’s|Pen- te- cost- al bu- gle|
w: 2.~The|King of Heav- en earth- * ward|march- es, His|feet are in the clouds to-|
w: 3.~Up|at the voice of thy * com-|mand- er, The|fin- al con- flict now is|
w: 4.~And|by His power all wrongs * re-|dress- ing, He|soon will seal the aw- ful|
w: 5.~Strong|in the Gos- pel’s full * pro-|vi- sion, Pre-|pared for that e- vent- ful|
 [EG]4- [EG]>[GB] | [Ac]>[Ac] [Ac]>[Ac] (3([ce][Bd])[Ac] | [GB]2 [EG]7/2 [GB]/ | %7
w: note, * The|wis- dom of the wise * con-|found- ing— O|
w: day, * And|soon be- neath time’s crumb- * ling|arch- es, He’ll|
w: on; * No|more to crea- ture com- * forts|pan- der, Truth’s|
w: fate * Of|de- mon hosts a- round * us|press- ing, Ma-|
w: hour; * March|with a bold and firm * de-|ci- sion, Armed|
 [Ac]>[GB] [FA]3 [GB] | [EG]4- [EG]>[GB] | [Ad]>[Ad] [Ad]>[Ad] (3(dc)[AB] | [Ge]2 [GB]7/2 [GB]/ | %11
w: hear it swell and|float. * A-|bove the din of earth’s * com-|mo- tion The|
w: lead us to the|fray. * Sol-|diers of Christ pre- pare * for|bat- tle; A|
w: vic- t’ry must be|won. * Fear|not the foe, but trust * thy|lead- er— The|
w: lig- nant in their|hate. * Press|on to- ward the King’s * high|call- ing, With|
w: with the Spir- it’s|power. * The|glad and wel- come news * pro-|claim- ing, In|
 [GB]>[GB] [GB]>[GB] (3([GB][FA])[EG] | [DF]4- [DF]>[GB] | [GB]>[GB] [GB]>[GB] (3(Bc)[Ad] | %14
w: mid- night cry we soon * shall|hear; * A-|rise and prove thy love’s * de-|
w: sound of strife is in * the|air; * We|smell the smoke and hear * the|
w: Lord of hosts just at * thy|side, * Who|comes to win— blest In- * ter-|
w: love’s am- bi- tion in * thy|soul; * Press|on while foes a- round * are|
w: ev- ery land from sea * to|sea; * The|Con- queror comes in gar- * ments|
 [Ge]2 [GB]7/2 [GB]/ | [GB]>[GB] [Ac]3 [AB] | [Ge]4 ||[M:4/4]"^Refrain" [B,E]2 | G6 B,2 | %19
w: vo- tion— The|day of Christ is|near.|||
w: rat- tle, That|warns us to pre-|pare.|||
w: ced- er— A|mil- i- ta- ry|bride.|A-|rise! A-|
w: fall- ing— Press|on to- ward the|goal.|||
w: flam- ing To|bring earth’s ju- bi-|lee.|||
 B6 [B,E]2 | (3(FE)[DF] [EG]2 [B,E]2 E2 | [DF]>[DF] [B,E]>[DF] [EG]7/2 ||[M:3/4] [GB]/ | %23
w: ||||
w: ||||
w: rise! Ye|heirs * of glo- ry— The|Bride- groom’s at the door!|Sal-|
w: ||||
w: ||||
 [GB]>[GB] [Ac]>[GB] [FA]>[FA] | [DF]2 [DB]3 [GB] | [GB]>[GB] [EG]2 [DF]2 | [B,E]4- [B,E]3/2 |] %27
w: ||||
w: ||||
w: va- tion’s glad and bless- èd|sto- ry, Pro-|claim a- broad once|more. *|
w: ||||
w: ||||
V:2
 x/ | x4 A2 | x6 | x6 | x6 | x6 | x6 | x6 | x6 | x4 A2 | x6 | x6 | x6 | x4 A2 | x6 | x6 | x4 || %17
[M:4/4] x2 | (E2 D2 C2) B,2 | (E2 G2 E2) x2 | D2 x10/3 E2 x2/3 | x15/2 ||[M:3/4] x/ | x6 | x6 | %25
 x6 | x11/2 |] %27
V:3
 [E,E]/ | [E,B,]>[E,E] [E,E]>[E,E] (3:2:2[B,D]2 [B,D] | [E,E]2 [E,B,]7/2 [E,E]/ | %3
w: ~|~ ~ ~ ~ ~ ~|~ ~ ~|
 [E,B,]>[E,B,] [E,B,]>[E,B,] [B,,B,]>[B,,B,] | [E,B,]4- [E,B,]>[E,E] | %5
w: ~ ~ ~ ~ ~ ~|~ * ~|
 [A,E]>[E,E] [E,E]>[E,E] (3:2:2[A,E]2 [A,E] | [E,E]2 [E,B,]7/2 [E,B,]/ | %7
w: ~ ~ ~ ~ ~ ~|~ ~ ~|
 [E,B,]>[E,B,] [B,,B,]3 [B,,B,] | [E,B,]4- [E,B,]>[E,E] | %9
w: ~ ~ ~ ~|~ * ~|
 [F,D]>[F,D] [B,D]>[B,D] (3:2:2[B,D]2 [B,D] | [E,E]2 [E,B,]7/2 [E,E]/ | %11
w: ~ ~ ~ ~ ~ ~|~ ~ ~|
 [E,E]>[E,E] [E,E]>[E,E] (3:2:2[E,B,]2 [E,B,] | B,4- B,>[E,E] | %13
w: ~ ~ ~ ~ ~ ~|~ * ~|
 [E,E]>[E,E] [E,E]>[E,E] (3:2:2[B,D]2 [B,D] | [E,E]2 [E,B,]7/2 [E,B,]/ | [B,,B,]>B, [B,D]3 [B,D] | %16
w: ~ ~ ~ ~ ~ ~|~ ~ ~|~ ~ ~ ~|
 [E,E]4 ||[M:4/4] E,2 | E,2 D,2 C,2 B,,2 | G,6 [E,G,]2 | %20
w: ~|~|~ a- rise! ~|~ a-|
 (3:2:2[B,,B,]2 [B,,B,] [E,B,]2 [E,G,]2 [E,G,]2 | [B,,B,]>[B,,B,] [B,,G,]>[B,,A,] [E,B,]7/2 || %22
w: rise! * * * *||
[M:3/4] [E,B,]/ | [B,,B,]>[B,,B,] [B,,B,]>[B,,B,] [B,,B,]>[B,,B,] | [B,,B,]2 [B,,B,]3 [B,,B,] | %25
w: |||
 [B,,B,]>[B,,B,] [B,,B,]2 [B,,A,]2 | [E,G,]4- [E,G,]3/2 |] %27
w: ||
V:4
 x/ | x6 | x6 | x6 | x6 | x6 | x6 | x6 | x6 | x6 | x6 | x6 | B,4- B,3/2 x/ | x6 | x6 | %15
 x3/2 B,/ x4 | x4 ||[M:4/4] E,2 | E,2 D,2 C,2 B,,2 | E,2 B,,2 E,2 x2 | x8 | x15/2 ||[M:3/4] x/ | %23
 x6 | x6 | x6 | x11/2 |] %27

